X:1
T:Title
%%score 1 { ( 2 5 ) | ( 3 4 ) }
L:1/8
M:3/4
K:D
V:1 treble nm="Akkordion"
V:2 bass nm="Grand Piano"
V:5 bass 
V:3 bass 
V:4 bass 
V:1
 z2 z[Q:1/4=100] A, D>E | F3 A ^GB | A3 F Ad | c3 B A>G |[M:3/8] F3 | A,D>E |[M:3/4] F3 A ^GB | %7
 A3 A AA | e3 c B>A |[M:2/4] A4 |[M:1/4] z2 |[M:3/4] z6 | z6 | z6 |[M:2/4] z4 |[M:1/4] z2 | %16
[M:3/4] z6 | z6 | z6 |[M:3/8] z3 |] %20
V:2
 z2 z A,, D,>E, | A3 F =FG | [A,F]3 D FF | [CA]3 G F>E |[M:3/8] D3 | A,,D,>E, | %6
[M:3/4][K:treble] A3 A ^GB | A2 z A, A^D | A3 c B>[CA] |[M:2/4] [CA]4 |[M:1/4] A2 | %11
[M:3/4] [Fd]3 [FA] FD | [CE]4 A2 | c3 B AG |[M:2/4] F4 |[M:1/4] [FA]2 |[M:3/4] BG d3 B | %17
 [FA]F D2 [DE]2 | [DF][DA] [CF]3 [CE] |[M:3/8] D3 |] %20
V:3
 z6 | [F,A,D]3 A, ^G,B, | z2 z F, A,D | A,,E, A,[B,C] [A,C]>[G,C] |[M:3/8] [D,F,]3 | z3 | %6
[M:3/4] [F,A,D]3 F, =F,G, | [D,F,]3 F, [F,A,D][=F,=C] | [E,CE]3 [E,A,E] [E,^G,D]>[A,,E,] | %9
[M:2/4] [A,,E,]4 |[M:1/4] [A,G]2 |[M:3/4] [D,A,]3 [D,D] [D,A,D][D,F,] | %12
 [A,,A,]4[K:treble] [A,CG]2 | [A,EG]3 [A,CG] [A,DF][A,E] |[M:2/4][K:bass] [D,A,D]4 | %15
[M:1/4] [D,D]2 |[M:3/4][K:treble] [G,DG][G,B,] [G,B,G]3 [G,DG] | [D,D][D,A,D] [D,F,]2 [B,,^G,]2 | %18
 [A,,A,][A,,F,] [A,,A,]3 [A,,G,] |[M:3/8] [D,F,]3 |] %20
V:4
 x6 | x6 | D,6 | x6 |[M:3/8] x3 | x3 |[M:3/4] D,6 | x6 | x6 |[M:2/4] x4 |[M:1/4] x2 |[M:3/4] x6 | %12
 x4[K:treble] x2 | x6 |[M:2/4][K:bass] x4 |[M:1/4] x2 |[M:3/4][K:treble] x6 | x6 | x6 | %19
[M:3/8] x3 |] %20
V:5
 x6 | x6 | x6 | x6 |[M:3/8] x3 | x3 |[M:3/4][K:treble] x6 | z2 D2 z2 | x6 |[M:2/4] x4 |[M:1/4] x2 | %11
[M:3/4] x6 | x6 | x6 |[M:2/4] x4 |[M:1/4] x2 |[M:3/4] x6 | x6 | x6 |[M:3/8] x3 |] %20

